evolvere-2-blue/mimetypes/16/application-x-bytecode.svg

<?xml version="1.0" encoding="UTF-8"?>
<!-- Created with Inkscape (http://www.inkscape.org/) -->
<svg width="16" height="16" version="1.1" xml:space="preserve" xmlns="http://www.w3.org/2000/svg" xmlns:cc="http://creativecommons.org/ns#" xmlns:dc="http://purl.org/dc/elements/1.1/" xmlns:rdf="http://www.w3.org/1999/02/22-rdf-syntax-ns#"><defs><style id="current-color-scheme" type="text/css">.ColorScheme-Text {color:#090d11;}.ColorScheme-Background{color:#ffffff;}</style></defs><metadata><rdf:RDF><cc:Work rdf:about=""><dc:format>image/svg+xml</dc:format><dc:type rdf:resource="http://purl.org/dc/dcmitype/StillImage"/></cc:Work></rdf:RDF></metadata><path id="f" class="ColorScheme-Text" d="m2 1c-0.554 0-1 0.446-1 1v12c0 0.554 0.446 1 1 1h12c0.554 0 1-0.446 1-1v-12c0-0.554-0.446-1-1-1zm3 1h3v3h3v-3h3v3h-3v3h3v3h-3v3h-3v-3h-3v3h-3v-3h3v-3h-3v-3h3zm0 3v3h3v-3zm3 3v3h3v-3z" style="fill-opacity:.75;fill:currentColor"/><path id="h" class="ColorScheme-Background" d="m2 0c-1.0907 0-2 0.9093-2 2v12c0 1.0907 0.9093 2 2 2h12c1.0907 0 2-0.9093 2-2v-12c0-1.0907-0.9093-2-2-2zm0 1h12c0.554 0 1 0.446 1 1v12c0 0.554-0.446 1-1 1h-12c-0.554 0-1-0.446-1-1v-12c0-0.554 0.446-1 1-1zm3 1v3h3v-3zm3 3v3h3v-3zm3 0h3v-3h-3zm0 3v3h3v-3zm0 3h-3v3h3zm-3 0v-3h-3v3zm-3 0h-3v3h3zm0-3v-3h-3v3z" style="fill-opacity:.5;fill:currentColor"/></svg>

<?xml version="1.0" encoding="UTF-8" standalone="no"?>
<!-- Created with Inkscape (http://www.inkscape.org/) -->

<svg
   xmlns:dc="http://purl.org/dc/elements/1.1/"
   xmlns:cc="http://creativecommons.org/ns#"
   xmlns:rdf="http://www.w3.org/1999/02/22-rdf-syntax-ns#"
   xmlns:svg="http://www.w3.org/2000/svg"
   xmlns="http://www.w3.org/2000/svg"
   xmlns:sodipodi="http://sodipodi.sourceforge.net/DTD/sodipodi-0.dtd"
   xmlns:inkscape="http://www.inkscape.org/namespaces/inkscape"
   version="1.1"
   width="16"
   height="16"
   id="svg13094"
   inkscape:version="0.48.4 r9939"
   sodipodi:docname="application-x-bytecode.svg">
  <sodipodi:namedview
     pagecolor="#ffffff"
     bordercolor="#666666"
     borderopacity="1"
     objecttolerance="10"
     gridtolerance="10"
     guidetolerance="10"
     inkscape:pageopacity="0"
     inkscape:pageshadow="2"
     inkscape:window-width="1366"
     inkscape:window-height="707"
     id="namedview68"
     showgrid="true"
     inkscape:zoom="29.5"
     inkscape:cx="8.785633"
     inkscape:cy="8.2709672"
     inkscape:window-x="-5"
     inkscape:window-y="26"
     inkscape:window-maximized="1"
     inkscape:current-layer="svg13094"
     inkscape:snap-bbox="true"
     inkscape:bbox-paths="true"
     inkscape:bbox-nodes="true"
     inkscape:snap-bbox-edge-midpoints="true"
     inkscape:snap-bbox-midpoints="true"
     inkscape:object-paths="true"
     inkscape:snap-intersection-paths="true"
     inkscape:object-nodes="true"
     inkscape:snap-smooth-nodes="true"
     inkscape:snap-midpoints="true"
     inkscape:snap-object-midpoints="true"
     inkscape:snap-center="true"
     inkscape:snap-global="true"
     fit-margin-top="0"
     fit-margin-left="0"
     fit-margin-right="0"
     fit-margin-bottom="0">
    <inkscape:grid
       type="xygrid"
       id="grid3142"
       empspacing="5"
       visible="true"
       enabled="true"
       snapvisiblegridlinesonly="true"
       originx="-4.0000003px"
       originy="-23px" />
  </sodipodi:namedview>
  <defs
     id="defs11" />
  <metadata
     id="metadata13099">
    <rdf:RDF>
      <cc:Work
         rdf:about="">
        <dc:format>image/svg+xml</dc:format>
        <dc:type
           rdf:resource="http://purl.org/dc/dcmitype/StillImage" />
        <dc:title />
      </cc:Work>
    </rdf:RDF>
  </metadata>
  <path
     style="color:#000000;fill:#8a929e;fill-opacity:0.60931899;fill-rule:nonzero;stroke:none;stroke-width:1;marker:none;visibility:visible;display:inline;overflow:visible;enable-background:accumulate"
     d="M 5 2 L 5 5 L 8 5 L 8 2 L 5 2 z M 8 5 L 8 8 L 11 8 L 11 5 L 8 5 z M 11 5 L 14 5 L 14 2 L 11 2 L 11 5 z M 11 8 L 11 11 L 14 11 L 14 8 L 11 8 z M 11 11 L 8 11 L 8 14 L 11 14 L 11 11 z M 8 11 L 8 8 L 5 8 L 5 11 L 8 11 z M 5 11 L 2 11 L 2 14 L 5 14 L 5 11 z M 5 8 L 5 5 L 2 5 L 2 8 L 5 8 z "
     id="rect3023" />
  <path
     style="color:#000000;fill:#27303a;fill-opacity:0.753280819999999968;fill-rule:nonzero;stroke:none;stroke-width:1;marker:none;visibility:visible;display:inline;overflow:visible;enable-background:accumulate"
     d="M 1 1 L 1 15 L 15 15 L 15 1 L 1 1 z M 5 2 L 8 2 L 8 5 L 11 5 L 11 2 L 14 2 L 14 5 L 11 5 L 11 8 L 14 8 L 14 11 L 11 11 L 11 14 L 8 14 L 8 11 L 5 11 L 5 14 L 2 14 L 2 11 L 5 11 L 5 8 L 2 8 L 2 5 L 5 5 L 5 2 z M 5 5 L 5 8 L 8 8 L 8 5 L 5 5 z M 8 8 L 8 11 L 11 11 L 11 8 L 8 8 z "
     id="rect3015" />
  <path
     style="color:#000000;fill:#f1f3f5;fill-opacity:0.90288714000000003;fill-rule:nonzero;stroke:none;stroke-width:2;marker:none;visibility:visible;display:inline;overflow:visible;enable-background:accumulate"
     d="M 0 0 L 0 16 L 16 16 L 16 0 L 0 0 z M 1 1 L 15 1 L 15 15 L 1 15 L 1 1 z "
     id="rect3134" />
</svg>
